src/epub/images/titlepage.svg

<?xml version="1.0" encoding="utf-8"?>
<svg xmlns="http://www.w3.org/2000/svg" xmlns:svg="http://www.w3.org/2000/svg" version="1.1" viewBox="0 0 1400 520">
	<title>The titlepage for the Standard Ebooks edition of The Luck of Barry Lyndon, by William Makepeace Thackeray</title>
	<g>
		<path d="m 360.14181,68.245613 18.33918,0 0,61.754387 17.59064,0 0,-61.754387 18.33918,0 0,-15.438597 -54.269,0 0,15.438597 z"/>
		<path d="m 443.33625,99.029239 24.88889,0 0,30.970761 17.59065,0 0,-77.192984 -17.59065,0 0,30.783626 -24.88889,0 0,-30.783626 -17.59064,0 0,77.192984 17.59064,0 0,-30.970761 z"/>
		<path d="m 546.18129,52.807016 -44.16375,0 0,77.192984 44.16375,0 0,-15.4386 -26.5731,0 0,-15.532161 25.45029,0 0,-15.438597 -25.45029,0 0,-15.345029 26.5731,0 0,-15.438597 z"/>
		<path d="m 609.4693,52.807016 -17.59064,0 0,77.192984 44.16374,0 0,-15.4386 -26.5731,0 0,-61.754384 z"/>
		<path d="m 709.01461,52.807016 -17.59064,0 0,44.63158 c 0,12.912284 -3.92983,16.654974 -12.53801,16.654974 -8.60819,0 -12.53802,-3.74269 -12.53802,-16.654974 l 0,-44.63158 -17.59064,0 0,49.777774 c 0,19.08772 10.47953,28.81872 30.12866,28.81872 19.64912,0 30.12865,-9.731 30.12865,-28.81872 l 0,-49.777774 z"/>
		<path d="m 762.47221,114.09357 c -17.68421,0 -25.45029,-12.35088 -25.45029,-22.736846 0,-10.292397 7.76608,-22.643275 25.45029,-22.643275 8.98246,0 15.1579,4.77193 15.1579,4.77193 l 7.48538,-14.97076 c 0,0 -8.60819,-7.111112 -25.35673,-7.111112 -21.89473,0 -41.82456,17.964913 -41.82456,40.140352 0,22.081871 20.02339,39.859651 41.82456,39.859651 16.74854,0 25.35673,-7.11111 25.35673,-7.11111 l -7.48538,-14.97076 c 0,0 -6.17544,4.77193 -15.1579,4.77193 z"/>
		<path d="m 867.20615,130 -35.92982,-40.608188 31.06432,-36.584796 -21.33333,0 -26.47953,31.532164 0,-31.532164 -17.59065,0 0,77.192984 17.59065,0 0,-32.748539 L 842.97223,130 l 24.23392,0 z"/>
		<path d="m 902.70761,91.356724 c 0,22.549706 16.09357,40.046786 38.92398,40.046786 22.17543,0 38.83041,-17.49708 38.83041,-40.046786 0,-22.549708 -17.40351,-39.953217 -38.83041,-39.953217 -21.23977,0 -38.92398,17.403509 -38.92398,39.953217 z m 18.99415,0 c 0,-11.508772 6.36257,-23.017544 19.92983,-23.017544 13.66081,0 19.83625,11.508772 19.83625,23.017544 0,11.508776 -5.80117,23.017546 -19.83625,23.017546 -14.40936,0 -19.92983,-11.50877 -19.92983,-23.017546 z"/>
		<path d="m 1037.8553,52.807016 -44.63163,0 0,77.192984 17.59063,0 0,-30.970761 24.9825,0 0,-15.438597 -24.9825,0 0,-15.345029 27.041,0 0,-15.438597 z"/>
	</g>
	<g>
		<path d="m 291.05262,152.80702 0,77.19298 29.28656,0 c 16,0 25.26315,-8.79532 25.26315,-21.52047 0,-12.44444 -6.83041,-17.77778 -16.46783,-19.46199 6.5497,-3.36842 9.63742,-9.45029 9.63742,-16.5614 0,-14.69006 -10.47953,-19.64912 -23.76608,-19.64912 l -23.95322,0 z m 17.59065,30.22222 0,-16.65497 1.40351,0 c 7.67251,0 11.6959,2.33918 11.6959,7.85965 0,6.45614 -4.11696,8.79532 -11.6959,8.79532 l -1.40351,0 z m 0,33.40351 0,-18.24562 5.52047,0 c 8.32748,0 12.91228,2.52632 12.91228,9.63743 0,6.08187 -4.5848,8.60819 -12.91228,8.60819 l -5.52047,0 z"/>
		<path d="m 395.74707,152.80702 -16.2807,0 L 348.30848,230 l 18.90058,0 5.7076,-15.4386 29.38012,0 5.7076,15.4386 18.90059,0 -31.1579,-77.19298 z m 0.56141,46.31579 -17.40351,0 8.60818,-22.45614 0.18714,0 8.60819,22.45614 z"/>
		<path d="m 434.82457,152.80702 0,77.19298 17.59064,0 0,-30.50292 23.57895,30.50292 22.36257,0 -26.5731,-31.90643 c 9.45029,-2.99416 15.81287,-10.76024 15.81287,-22.36258 0,-15.15789 -10.8538,-22.92397 -25.16959,-22.92397 l -27.60234,0 z m 17.59064,34.24561 0,-20.21053 2.05848,0 c 6.64328,0 14.59649,0.46784 14.59649,10.10527 0,9.63742 -7.95321,10.10526 -14.59649,10.10526 l -2.05848,0 z"/>
		<path d="m 506.89328,152.80702 0,77.19298 17.59064,0 0,-30.50292 23.57895,30.50292 22.36257,0 -26.5731,-31.90643 c 9.45029,-2.99416 15.81287,-10.76024 15.81287,-22.36258 0,-15.15789 -10.8538,-22.92397 -25.16959,-22.92397 l -27.60234,0 z m 17.59064,34.24561 0,-20.21053 2.05848,0 c 6.64328,0 14.59649,0.46784 14.59649,10.10527 0,9.63742 -7.95321,10.10526 -14.59649,10.10526 l -2.05848,0 z"/>
		<path d="m 562.1345,152.80702 28.44445,42.5731 0,34.61988 17.59064,0 0,-34.61988 28.44445,-42.5731 -21.1462,0 -16.09357,24.70175 -16.09357,-24.70175 -21.1462,0 z"/>
		<path d="m 692.62719,152.80702 -17.59065,0 0,77.19298 44.16375,0 0,-15.4386 -26.5731,0 0,-61.75438 z"/>
		<path d="m 717.11988,152.80702 28.44445,42.5731 0,34.61988 17.59064,0 0,-34.61988 28.44445,-42.5731 -21.1462,0 -16.09357,24.70175 -16.09357,-24.70175 -21.1462,0 z"/>
		<path d="m 817.02779,182.09357 0.18713,0 30.69006,47.90643 17.59065,0 0,-77.19298 -17.59065,0 0,47.90643 -0.18713,0 -30.69006,-47.90643 -17.59064,0 0,77.19298 17.59064,0 0,-47.90643 z"/>
		<path d="m 881.73976,152.80702 0,77.19298 22.36257,0 c 21.23977,0 38.92398,-16.09357 38.92398,-38.64328 0,-22.45614 -17.77778,-38.5497 -38.92398,-38.5497 l -22.36257,0 z m 17.59064,61.47368 0,-45.75439 2.71345,0 c 13.09942,0 21.98831,10.0117 21.98831,22.92398 -0.0936,12.91228 -8.98246,22.83041 -21.98831,22.83041 l -2.71345,0 z"/>
		<path d="m 952.35675,191.35672 c 0,22.54971 16.09357,40.04679 38.92398,40.04679 22.17547,0 38.83037,-17.49708 38.83037,-40.04679 0,-22.5497 -17.4035,-39.95321 -38.83037,-39.95321 -21.23977,0 -38.92398,17.40351 -38.92398,39.95321 z m 18.99415,0 c 0,-11.50877 6.36258,-23.01754 19.92983,-23.01754 13.66077,0 19.83627,11.50877 19.83627,23.01754 0,11.50878 -5.8012,23.01755 -19.83627,23.01755 -14.40936,0 -19.92983,-11.50877 -19.92983,-23.01755 z"/>
		<path d="m 1060.4635,182.09357 0.1871,0 30.6901,47.90643 17.5906,0 0,-77.19298 -17.5906,0 0,47.90643 -0.1872,0 -30.69,-47.90643 -17.5907,0 0,77.19298 17.5907,0 0,-47.90643 z"/>
	</g>
	<g>
		<path d="m 312.04441,390 14.59649,0 16.49123,-57.89474 -14.59649,0 -9.89474,39.7193 -0.35087,0 -10.52632,-39.7193 -9.96491,0 -10.52632,39.7193 -0.35088,0 -9.89473,-39.7193 -14.66667,0 L 278.85143,390 293.5181,390 302.78125,357.50877 312.04441,390 Z"/>
		<path d="m 364.48959,332.10526 -13.19298,0 0,57.89474 13.19298,0 0,-57.89474 z"/>
		<path d="m 391.14529,332.10526 -13.19298,0 0,57.89474 33.1228,0 0,-11.57895 -19.92982,0 0,-46.31579 z"/>
		<path d="m 435.75604,332.10526 -13.19298,0 0,57.89474 33.1228,0 0,-11.57895 -19.92982,0 0,-46.31579 z"/>
		<path d="m 480.36679,332.10526 -13.19299,0 0,57.89474 13.19299,0 0,-57.89474 z"/>
		<path d="m 523.23301,332.10526 -12.21052,0 L 487.65407,390 l 14.17544,0 4.2807,-11.57895 22.03508,0 L 532.426,390 l 14.17543,0 -23.36842,-57.89474 z m 0.42106,34.73685 -13.05264,0 6.45615,-16.84211 0.14035,0 6.45614,16.84211 z"/>
		<path d="m 601.65076,390 13.19299,0 -5.19299,-57.89474 -14.03508,0 -12.84211,33.40351 -12.84211,-33.40351 -14.03508,0 -5.19299,57.89474 13.19299,0 2.73684,-34.31579 0.35088,0 11.85965,33.96491 7.85964,0 11.85965,-33.96491 0.35088,0 L 601.65076,390 Z"/>
		<path d="m 697.17707,390 13.19298,0 -5.19298,-57.89474 -14.03509,0 -12.8421,33.40351 -12.84211,-33.40351 -14.03509,0 L 646.2297,390 l 13.19298,0 2.73685,-34.31579 0.35087,0 11.85965,33.96491 7.85965,0 11.85965,-33.96491 0.35088,0 L 697.17707,390 Z"/>
		<path d="m 750.05867,332.10526 -12.21053,0 L 714.47972,390 l 14.17544,0 4.2807,-11.57895 22.03509,0 4.2807,11.57895 14.17544,0 -23.36842,-57.89474 z m 0.42105,34.73685 -13.05263,0 6.45614,-16.84211 0.14035,0 6.45614,16.84211 z"/>
		<path d="m 833.31852,390 -26.94737,-30.45614 23.29825,-27.4386 -16,0 -19.85965,23.64913 0,-23.64913 -13.19298,0 0,57.89474 13.19298,0 0,-24.5614 21.33333,24.5614 18.17544,0 z"/>
		<path d="m 873.97535,332.10526 -33.1228,0 0,57.89474 33.1228,0 0,-11.57895 -19.92982,0 0,-11.64912 19.08772,0 0,-11.57895 -19.08772,0 0,-11.50877 19.92982,0 0,-11.57895 z"/>
		<path d="m 886.55976,332.10526 0,57.89474 13.19298,0 0,-21.47368 7.92983,0 c 11.29824,0 19.78947,-6.66667 19.78947,-18.5965 0,-11.99999 -8.49123,-17.82456 -19.78947,-17.82456 l -21.12281,0 z M 899.75274,358 l 0,-15.36842 3.7193,0 c 5.19298,0 10.10526,1.75439 10.10526,7.7193 0,5.89473 -4.91228,7.64912 -10.10526,7.64912 l -3.7193,0 z"/>
		<path d="m 971.42048,332.10526 -33.1228,0 0,57.89474 33.1228,0 0,-11.57895 -19.92982,0 0,-11.64912 19.08772,0 0,-11.57895 -19.08772,0 0,-11.50877 19.92982,0 0,-11.57895 z"/>
		<path d="m 1013.8196,332.10526 -12.2105,0 L 978.24065,390 l 14.17543,0 4.28071,-11.57895 22.03511,0 4.2807,11.57895 14.1754,0 -23.3684,-57.89474 z m 0.421,34.73685 -13.0526,0 6.4562,-16.84211 0.1403,0 6.4561,16.84211 z"/>
		<path d="m 1072.9918,378.07018 c -13.2632,0 -19.0877,-9.26316 -19.0877,-17.05264 0,-7.71929 5.8245,-16.98245 19.0877,-16.98245 6.7368,0 11.3684,3.57895 11.3684,3.57895 l 5.614,-11.22807 c 0,0 -6.4561,-5.33334 -19.0175,-5.33334 -16.4211,0 -31.3684,13.47369 -31.3684,30.10527 0,16.5614 15.0175,29.89473 31.3684,29.89473 12.5614,0 19.0175,-5.33333 19.0175,-5.33333 l -5.614,-11.22807 c 0,0 -4.6316,3.57895 -11.3684,3.57895 z"/>
		<path d="m 1133.2133,332.10526 -33.1228,0 0,57.89474 33.1228,0 0,-11.57895 -19.9299,0 0,-11.64912 19.0878,0 0,-11.57895 -19.0878,0 0,-11.50877 19.9299,0 0,-11.57895 z"/>
	</g>
	<g>
		<path d="m 456.80866,423.68421 13.75439,0 0,46.31579 13.19298,0 0,-46.31579 13.75439,0 0,-11.57895 -40.70176,0 0,11.57895 z"/>
		<path d="m 520.4545,446.77193 18.66666,0 0,23.22807 13.19298,0 0,-57.89474 -13.19298,0 0,23.08772 -18.66666,0 0,-23.08772 -13.19299,0 0,57.89474 13.19299,0 0,-23.22807 z"/>
		<path d="m 595.11897,412.10526 -12.21053,0 L 559.54002,470 l 14.17544,0 4.2807,-11.57895 22.03509,0 4.2807,11.57895 14.17544,0 -23.36842,-57.89474 z m 0.42105,34.73685 -13.05263,0 6.45614,-16.84211 0.14035,0 6.45614,16.84211 z"/>
		<path d="m 654.29111,458.07018 c -13.26316,0 -19.08772,-9.26316 -19.08772,-17.05264 0,-7.71929 5.82456,-16.98245 19.08772,-16.98245 6.73684,0 11.36842,3.57895 11.36842,3.57895 l 5.61404,-11.22807 c 0,0 -6.45614,-5.33334 -19.01755,-5.33334 -16.42105,0 -31.36842,13.47369 -31.36842,30.10527 0,16.5614 15.01755,29.89473 31.36842,29.89473 12.56141,0 19.01755,-5.33333 19.01755,-5.33333 l -5.61404,-11.22807 c 0,0 -4.63158,3.57895 -11.36842,3.57895 z"/>
		<path d="m 734.09155,470 -26.94737,-30.45614 23.29825,-27.4386 -16,0 -19.85965,23.64913 0,-23.64913 -13.19299,0 0,57.89474 13.19299,0 0,-24.5614 21.33333,24.5614 18.17544,0 z"/>
		<path d="m 774.74835,412.10526 -33.12281,0 0,57.89474 33.12281,0 0,-11.57895 -19.92983,0 0,-11.64912 19.08772,0 0,-11.57895 -19.08772,0 0,-11.50877 19.92983,0 0,-11.57895 z"/>
		<path d="m 787.33279,412.10526 0,57.89474 13.19298,0 0,-22.87719 17.68421,22.87719 16.77193,0 -19.92982,-23.92982 c 7.08771,-2.24562 11.85964,-8.07018 11.85964,-16.77193 0,-11.36842 -8.14035,-17.19299 -18.87719,-17.19299 l -20.70175,0 z m 13.19298,25.68421 0,-15.15789 1.54386,0 c 4.98246,0 10.94737,0.35088 10.94737,7.57895 0,7.22807 -5.96491,7.57894 -10.94737,7.57894 l -1.54386,0 z"/>
		<path d="m 872.03781,412.10526 -12.21053,0 L 836.45886,470 l 14.17544,0 4.2807,-11.57895 22.03509,0 4.2807,11.57895 14.17544,0 -23.36842,-57.89474 z m 0.42105,34.73685 -13.05263,0 6.45614,-16.84211 0.14035,0 6.45614,16.84211 z"/>
		<path d="m 889.97531,412.10526 21.33333,31.92983 0,25.96491 13.19299,0 0,-25.96491 21.33333,-31.92983 -15.85965,0 -12.07017,18.52632 -12.07018,-18.52632 -15.85965,0 z"/>
	</g>
</svg>

<?xml version="1.0" encoding="utf-8"?>
<svg xmlns="http://www.w3.org/2000/svg" xmlns:svg="http://www.w3.org/2000/svg" version="1.1" viewBox="0 0 1400 520">
	<title>The titlepage for the Standard Ebooks edition of The Luck of Barry Lyndon, by William Makepeace Thackeray</title>
	<g aria-label="THE LUCK OF">
		<path d="m 360.14181,68.245613 h 18.33918 V 130 h 17.59064 V 68.245613 h 18.33918 V 52.807016 h -54.269 z"/>
		<path d="m 443.33625,99.029239 h 24.88889 V 130 h 17.59065 V 52.807016 H 468.22514 V 83.590642 H 443.33625 V 52.807016 H 425.74561 V 130 h 17.59064 z"/>
		<path d="M 546.18129,52.807016 H 502.01754 V 130 h 44.16375 v -15.4386 h -26.5731 V 99.029239 h 25.45029 V 83.590642 H 519.60819 V 68.245613 h 26.5731 z"/>
		<path d="M 609.4693,52.807016 H 591.87866 V 130 h 44.16374 v -15.4386 h -26.5731 z"/>
		<path d="m 709.01461,52.807016 h -17.59064 v 44.63158 c 0,12.912284 -3.92983,16.654974 -12.53801,16.654974 -8.60819,0 -12.53802,-3.74269 -12.53802,-16.654974 V 52.807016 H 648.7573 v 49.777774 c 0,19.08772 10.47953,28.81872 30.12866,28.81872 19.64912,0 30.12865,-9.731 30.12865,-28.81872 z"/>
		<path d="m 762.47221,114.09357 c -17.68421,0 -25.45029,-12.35088 -25.45029,-22.736846 0,-10.292397 7.76608,-22.643275 25.45029,-22.643275 8.98246,0 15.1579,4.77193 15.1579,4.77193 l 7.48538,-14.97076 c 0,0 -8.60819,-7.111112 -25.35673,-7.111112 -21.89473,0 -41.82456,17.964913 -41.82456,40.140352 0,22.081871 20.02339,39.859651 41.82456,39.859651 16.74854,0 25.35673,-7.11111 25.35673,-7.11111 l -7.48538,-14.97076 c 0,0 -6.17544,4.77193 -15.1579,4.77193 z"/>
		<path d="M 867.20615,130 831.27633,89.391812 862.34065,52.807016 H 841.00732 L 814.52779,84.33918 V 52.807016 H 796.93714 V 130 h 17.59065 V 97.251461 L 842.97223,130 Z"/>
		<path d="m 902.70761,91.356724 c 0,22.549706 16.09357,40.046786 38.92398,40.046786 22.17543,0 38.83041,-17.49708 38.83041,-40.046786 0,-22.549708 -17.40351,-39.953217 -38.83041,-39.953217 -21.23977,0 -38.92398,17.403509 -38.92398,39.953217 z m 18.99415,0 c 0,-11.508772 6.36257,-23.017544 19.92983,-23.017544 13.66081,0 19.83625,11.508772 19.83625,23.017544 0,11.508776 -5.80117,23.017546 -19.83625,23.017546 -14.40936,0 -19.92983,-11.50877 -19.92983,-23.017546 z"/>
		<path d="M 1037.8553,52.807016 H 993.22367 V 130 h 17.59063 V 99.029239 h 24.9825 V 83.590642 h -24.9825 V 68.245613 h 27.041 z"/>
	</g>
	<g aria-label="BARRY LYNDON">
		<path d="M 291.05262,152.80702 V 230 h 29.28656 c 16,0 25.26315,-8.79532 25.26315,-21.52047 0,-12.44444 -6.83041,-17.77778 -16.46783,-19.46199 6.5497,-3.36842 9.63742,-9.45029 9.63742,-16.5614 0,-14.69006 -10.47953,-19.64912 -23.76608,-19.64912 z m 17.59065,30.22222 v -16.65497 h 1.40351 c 7.67251,0 11.6959,2.33918 11.6959,7.85965 0,6.45614 -4.11696,8.79532 -11.6959,8.79532 z m 0,33.40351 v -18.24562 h 5.52047 c 8.32748,0 12.91228,2.52632 12.91228,9.63743 0,6.08187 -4.5848,8.60819 -12.91228,8.60819 z"/>
		<path d="m 395.74707,152.80702 h -16.2807 L 348.30848,230 h 18.90058 l 5.7076,-15.4386 h 29.38012 L 408.00438,230 h 18.90059 z m 0.56141,46.31579 h -17.40351 l 8.60818,-22.45614 h 0.18714 z"/>
		<path d="M 434.82457,152.80702 V 230 h 17.59064 V 199.49708 L 475.99416,230 h 22.36257 l -26.5731,-31.90643 c 9.45029,-2.99416 15.81287,-10.76024 15.81287,-22.36258 0,-15.15789 -10.8538,-22.92397 -25.16959,-22.92397 z m 17.59064,34.24561 V 166.8421 h 2.05848 c 6.64328,0 14.59649,0.46784 14.59649,10.10527 0,9.63742 -7.95321,10.10526 -14.59649,10.10526 z"/>
		<path d="M 506.89328,152.80702 V 230 h 17.59064 V 199.49708 L 548.06287,230 h 22.36257 l -26.5731,-31.90643 c 9.45029,-2.99416 15.81287,-10.76024 15.81287,-22.36258 0,-15.15789 -10.8538,-22.92397 -25.16959,-22.92397 z m 17.59064,34.24561 V 166.8421 h 2.05848 c 6.64328,0 14.59649,0.46784 14.59649,10.10527 0,9.63742 -7.95321,10.10526 -14.59649,10.10526 z"/>
		<path d="m 562.1345,152.80702 28.44445,42.5731 V 230 h 17.59064 v -34.61988 l 28.44445,-42.5731 h -21.1462 l -16.09357,24.70175 -16.09357,-24.70175 z"/>
		<path d="M 692.62719,152.80702 H 675.03654 V 230 h 44.16375 v -15.4386 h -26.5731 z"/>
		<path d="m 717.11988,152.80702 28.44445,42.5731 V 230 h 17.59064 v -34.61988 l 28.44445,-42.5731 h -21.1462 l -16.09357,24.70175 -16.09357,-24.70175 z"/>
		<path d="m 817.02779,182.09357 h 0.18713 L 847.90498,230 h 17.59065 v -77.19298 h -17.59065 v 47.90643 h -0.18713 L 817.02779,152.80702 H 799.43715 V 230 h 17.59064 z"/>
		<path d="M 881.73976,152.80702 V 230 h 22.36257 c 21.23977,0 38.92398,-16.09357 38.92398,-38.64328 0,-22.45614 -17.77778,-38.5497 -38.92398,-38.5497 z m 17.59064,61.47368 v -45.75439 h 2.71345 c 13.09942,0 21.98831,10.0117 21.98831,22.92398 -0.0936,12.91228 -8.98246,22.83041 -21.98831,22.83041 z"/>
		<path d="m 952.35675,191.35672 c 0,22.54971 16.09357,40.04679 38.92398,40.04679 22.17547,0 38.83037,-17.49708 38.83037,-40.04679 0,-22.5497 -17.4035,-39.95321 -38.83037,-39.95321 -21.23977,0 -38.92398,17.40351 -38.92398,39.95321 z m 18.99415,0 c 0,-11.50877 6.36258,-23.01754 19.92983,-23.01754 13.66077,0 19.83627,11.50877 19.83627,23.01754 0,11.50878 -5.8012,23.01755 -19.83627,23.01755 -14.40936,0 -19.92983,-11.50877 -19.92983,-23.01755 z"/>
		<path d="m 1060.4635,182.09357 h 0.1871 L 1091.3407,230 h 17.5906 v -77.19298 h -17.5906 v 47.90643 h -0.1872 l -30.69,-47.90643 h -17.5907 V 230 h 17.5907 z"/>
	</g>
	<g aria-label="WILLIAM MAKEPEACE">
		<path d="m 312.04441,390 h 14.59649 l 16.49123,-57.89474 h -14.59649 l -9.89474,39.7193 h -0.35087 l -10.52632,-39.7193 h -9.96491 l -10.52632,39.7193 h -0.35088 l -9.89473,-39.7193 H 262.3602 L 278.85143,390 h 14.66667 l 9.26315,-32.49123 z"/>
		<path d="M 364.48959,332.10526 H 351.29661 V 390 h 13.19298 z"/>
		<path d="M 391.14529,332.10526 H 377.95231 V 390 h 33.1228 v -11.57895 h -19.92982 z"/>
		<path d="M 435.75604,332.10526 H 422.56306 V 390 h 33.1228 v -11.57895 h -19.92982 z"/>
		<path d="M 480.36679,332.10526 H 467.1738 V 390 h 13.19299 z"/>
		<path d="M 523.23301,332.10526 H 511.02249 L 487.65407,390 h 14.17544 l 4.2807,-11.57895 h 22.03508 L 532.426,390 h 14.17543 z m 0.42106,34.73685 H 510.60143 L 517.05758,350 h 0.14035 z"/>
		<path d="m 601.65076,390 h 13.19299 l -5.19299,-57.89474 h -14.03508 l -12.84211,33.40351 -12.84211,-33.40351 H 555.89638 L 550.70339,390 h 13.19299 l 2.73684,-34.31579 h 0.35088 l 11.85965,33.96491 h 7.85964 l 11.85965,-33.96491 h 0.35088 z"/>
		<path d="m 697.17707,390 h 13.19298 l -5.19298,-57.89474 h -14.03509 l -12.8421,33.40351 -12.84211,-33.40351 H 651.42268 L 646.2297,390 h 13.19298 l 2.73685,-34.31579 h 0.35087 l 11.85965,33.96491 h 7.85965 l 11.85965,-33.96491 h 0.35088 z"/>
		<path d="M 750.05867,332.10526 H 737.84814 L 714.47972,390 h 14.17544 l 4.2807,-11.57895 h 22.03509 L 759.25165,390 h 14.17544 z m 0.42105,34.73685 H 737.42709 L 743.88323,350 h 0.14035 z"/>
		<path d="m 833.31852,390 -26.94737,-30.45614 23.29825,-27.4386 h -16 l -19.85965,23.64913 V 332.10526 H 780.61677 V 390 h 13.19298 V 365.4386 L 815.14308,390 Z"/>
		<path d="m 873.97535,332.10526 h -33.1228 V 390 h 33.1228 v -11.57895 h -19.92982 v -11.64912 h 19.08772 v -11.57895 h -19.08772 v -11.50877 h 19.92982 z"/>
		<path d="M 886.55976,332.10526 V 390 h 13.19298 v -21.47368 h 7.92983 c 11.29824,0 19.78947,-6.66667 19.78947,-18.5965 0,-11.99999 -8.49123,-17.82456 -19.78947,-17.82456 z M 899.75274,358 v -15.36842 h 3.7193 c 5.19298,0 10.10526,1.75439 10.10526,7.7193 0,5.89473 -4.91228,7.64912 -10.10526,7.64912 z"/>
		<path d="m 971.42048,332.10526 h -33.1228 V 390 h 33.1228 v -11.57895 h -19.92982 v -11.64912 h 19.08772 v -11.57895 h -19.08772 v -11.50877 h 19.92982 z"/>
		<path d="m 1013.8196,332.10526 h -12.2105 L 978.24065,390 h 14.17543 l 4.28071,-11.57895 h 22.03511 L 1023.0126,390 h 14.1754 z m 0.421,34.73685 H 1001.188 L 1007.6442,350 h 0.1403 z"/>
		<path d="m 1072.9918,378.07018 c -13.2632,0 -19.0877,-9.26316 -19.0877,-17.05264 0,-7.71929 5.8245,-16.98245 19.0877,-16.98245 6.7368,0 11.3684,3.57895 11.3684,3.57895 l 5.614,-11.22807 c 0,0 -6.4561,-5.33334 -19.0175,-5.33334 -16.4211,0 -31.3684,13.47369 -31.3684,30.10527 0,16.5614 15.0175,29.89473 31.3684,29.89473 12.5614,0 19.0175,-5.33333 19.0175,-5.33333 l -5.614,-11.22807 c 0,0 -4.6316,3.57895 -11.3684,3.57895 z"/>
		<path d="m 1133.2133,332.10526 h -33.1228 V 390 h 33.1228 v -11.57895 h -19.9299 v -11.64912 h 19.0878 v -11.57895 h -19.0878 v -11.50877 h 19.9299 z"/>
	</g>
	<g aria-label="THACKERAY">
		<path d="m 456.80866,423.68421 h 13.75439 V 470 h 13.19298 v -46.31579 h 13.75439 v -11.57895 h -40.70176 z"/>
		<path d="m 520.4545,446.77193 h 18.66666 V 470 h 13.19298 v -57.89474 h -13.19298 v 23.08772 H 520.4545 V 412.10526 H 507.26151 V 470 h 13.19299 z"/>
		<path d="M 595.11897,412.10526 H 582.90844 L 559.54002,470 h 14.17544 l 4.2807,-11.57895 h 22.03509 L 604.31195,470 h 14.17544 z m 0.42105,34.73685 H 582.48739 L 588.94353,430 h 0.14035 z"/>
		<path d="m 654.29111,458.07018 c -13.26316,0 -19.08772,-9.26316 -19.08772,-17.05264 0,-7.71929 5.82456,-16.98245 19.08772,-16.98245 6.73684,0 11.36842,3.57895 11.36842,3.57895 l 5.61404,-11.22807 c 0,0 -6.45614,-5.33334 -19.01755,-5.33334 -16.42105,0 -31.36842,13.47369 -31.36842,30.10527 0,16.5614 15.01755,29.89473 31.36842,29.89473 12.56141,0 19.01755,-5.33333 19.01755,-5.33333 l -5.61404,-11.22807 c 0,0 -4.63158,3.57895 -11.36842,3.57895 z"/>
		<path d="m 734.09155,470 -26.94737,-30.45614 23.29825,-27.4386 h -16 l -19.85965,23.64913 V 412.10526 H 681.38979 V 470 h 13.19299 V 445.4386 L 715.91611,470 Z"/>
		<path d="M 774.74835,412.10526 H 741.62554 V 470 h 33.12281 v -11.57895 h -19.92983 v -11.64912 h 19.08772 v -11.57895 h -19.08772 v -11.50877 h 19.92983 z"/>
		<path d="M 787.33279,412.10526 V 470 h 13.19298 V 447.12281 L 818.20998,470 h 16.77193 l -19.92982,-23.92982 c 7.08771,-2.24562 11.85964,-8.07018 11.85964,-16.77193 0,-11.36842 -8.14035,-17.19299 -18.87719,-17.19299 z m 13.19298,25.68421 v -15.15789 h 1.54386 c 4.98246,0 10.94737,0.35088 10.94737,7.57895 0,7.22807 -5.96491,7.57894 -10.94737,7.57894 z"/>
		<path d="M 872.03781,412.10526 H 859.82728 L 836.45886,470 h 14.17544 l 4.2807,-11.57895 h 22.03509 L 881.23079,470 h 14.17544 z m 0.42105,34.73685 H 859.40623 L 865.86237,430 h 0.14035 z"/>
		<path d="m 889.97531,412.10526 21.33333,31.92983 V 470 h 13.19299 v -25.96491 l 21.33333,-31.92983 h -15.85965 l -12.07017,18.52632 -12.07018,-18.52632 z"/>
	</g>
</svg>
